build/img/icon-category/icon-category-16.svg

<svg width="22" height="26" viewBox="0 0 22 26" fill="none" xmlns="http://www.w3.org/2000/svg">
<path d="M13.4807 10.6531C13.4807 10.6531 14.547 4.62006 10.1916 2C10.1265 3.03655 9.8347 4.04828 9.33516 4.96916C8.83563 5.89005 8.13959 6.69939 7.29248 7.34439C5.43137 8.9173 1.93076 12.4455 1.96807 16.218C1.95561 17.8283 2.41132 19.4099 3.28389 20.7848C4.15645 22.1596 5.41123 23.2732 6.90691 24C6.96067 23.2729 7.16486 22.5633 7.50753 21.913C7.8502 21.2626 8.32447 20.6844 8.90258 20.2122C9.39273 19.8504 9.80287 19.3983 10.109 18.8824C10.4152 18.3665 10.6112 17.7972 10.6857 17.2076C11.9671 17.8615 13.0498 18.8238 13.828 20.0004C14.6061 21.1769 15.0529 22.5274 15.1248 23.9196V23.9424C16.5362 23.3202 17.7411 22.3352 18.6063 21.0962C19.4716 19.8573 19.9634 18.4126 20.0274 16.9219C20.1224 13.8617 19.0517 10.8734 17.0164 8.51755" stroke="#2C8ECC" stroke-width="2" stroke-miterlimit="10" stroke-linecap="square"/>
</svg>

<svg width="22" height="26" fill="none" xmlns="http://www.w3.org/2000/svg"><path d="M13.48 10.653S14.548 4.62 10.193 2a7.166 7.166 0 01-.857 2.97 7.46 7.46 0 01-2.043 2.374c-1.86 1.573-5.361 5.101-5.324 8.874a8.395 8.395 0 001.316 4.567A8.875 8.875 0 006.907 24a5.316 5.316 0 01.6-2.087 5.522 5.522 0 011.396-1.7c.49-.363.9-.815 1.206-1.33a4.348 4.348 0 00.577-1.675A8.262 8.262 0 0113.828 20a7.833 7.833 0 011.297 3.92v.022a8.342 8.342 0 003.481-2.846 7.876 7.876 0 001.421-4.174c.095-3.06-.975-6.049-3.01-8.404" stroke="#2C8ECC" stroke-width="2" stroke-miterlimit="10" stroke-linecap="square"/></svg>
